!!!OTL: ICH BIN EIN FREIER MANN UND SINGE
!!!ARE: Europa, Mitteleuropa, Deutschland
!!!SCT: B0321
!!!YEM: Copyright 1995, estate of Helmut Schaffrath.
**kern
*ICvox
*Ivox
*M4/4
*k[b-e-]
*B-:
{4f
=1
4.b-
8b-
8.cc
16cc
8b-
8cc
=2
4dd
4b-
4r}
{8a
8g
=3
4.f
8f
8.e-
16e-
8.f
16e-
=4
4d
2r}
{4d
=5
4.g
8g
8.a
16a
8g
8a
=6
4b-
4g
4r}
{4dd
=7
4.cc
8a
8.b-
16a
8.b-
16g
=8
4f
2r}
{4f
=9
4.cc
8cc
8.b-
16a
8.g
16f
=10
4f
4b-
4r}
{8b-
8a
=11
4.g
8a
8.b-
16a
8.b-
16cc
=12
2dd
8r}
{8dd
8dd
8cc
=13
4b-
4f
4g
4f
=14
4e-
4cc
8r}
{8cc
8.cc
16b-
=15
4a
4ee-
4dd
4cc
=16
2ff
8r}
{8ee-
8.dd
16cc
=17
4.b-
8b-
4cc
4a
=18
2b-
4r}
==
!!!AGN: Geselligkeits - Lied, Freude
!!!ONB: ESAC (Essen Associative Code) Database: BOEHME
!!!AMT: simple quadruple
!!!AIN: vox
!!!EED: Helmut Schaffrath
!!!EEV: 1.0
*-
